X:1
T:O the delights, the heavenly joys
T:O the delights, the heavenly joys - Mount Tabor (William Marsh)
C:William Marsh
Z:p2, A Set of New
Z:Psalm & Hymn Tunes,
Z:London: (1816)
%%score [ 1 2 3 4 ]
L:1/8
M:2/2
K:A
V:1 treble nm="Air" snm="S."
V:2 treble nm="[Alto]" snm="A."
V:3 treble-8 transpose=-12 nm="Tenor" snm="T."
V:4 bass nm="[Bass]" snm="B."
V:1
 z4 A4 | E2 E2 A2 A2 | (c>dc>B A2) G2 | A4 z2 A2 | c2 c2 c2 B2 | c6 B2 | e2 e2 e2 ^d2 | e8 | %8
w: Prin-|ces to his im-|per- * * * * ial|name Bend|their bright scep- tres|down, bend|their bright scep- tres|down;|
w: O|the de- lights, the|heav’n- * * * * ly|joys, The|glo- ries of the|place, the|glo- ries of the|place|
w: Sweet|ma- jes- ty and|aw- * * * * ful|love Sit|smi- ling on his|brow, sit|smi- ling on his|brow,|
 e4 c2 c2 | (c>dc>B A>BA>B | c2) c2 c2 A2 | B4 z4 | z4 c4 | A2 A2 (c>dc>d | e>fe>d c2) A2 | %15
w: Do- min- ions,|thrones _ _ _ _ _ _ _|_ and pow’rs re-|joice|To|see him wear _ _ _|_ _ _ _ _ the|
w: Where Je- sus|sheds _ _ _ _ _ _ _|_ the bright- est|beams|Of|his o’er- flow- * * *|* * * * * ing|
w: And all the|glor- * * * * * * *|* ious ranks a-|bove|At|hum- ble dis- * * *|* * * * * tance|
 e2 e2 e2 d2 | c4 B4 | A8 |] %18
w: crown, to see him|wear the|crown.|
w: grace, of his o’er-|flow- ing|grace.|
w: bow, at hum- ble|dis- tance|bow.|
V:2
 z4 E4 | E2 E2 E2 E2 | (A4 E2) E2 | E4 z2 E2 | E2 E2 E2 E2 | E6 G2 | A2 A2 G2 F2 | G8 | z8 | %9
w: Prin-|ces to his im-|per- * ial|name Bend|their bright scep- tres|down, bend|their bright scep- tres|down;||
w: O|the de- lights, the|heav’n- * ly|joys, The|glo- ries of the|place, the|glo- ries of the|place||
w: Sweet|ma- jes- ty and|aw- * ful|love Sit|smi- ling on his|brow, sit|smi- ling on his|brow,||
 E4 A2 F2 | E2 E2 E2 E2 | E4 z4 | z8 | z4 A4 | E2 E2 E2 E2 | E2 A2 A2 F2 | E6 D2 | C8 |] %18
w: Do- min- ions,|thrones and pow’rs re-|joice||To|see him wear the|crown, to see him|wear the|crown.|
w: Where Je- sus|sheds the bright- est|beams||Of|his o’er- flow- ing|grace, of his o’er-|flow- ing|grace.|
w: And all the|glor- ious ranks a-|bove||At|hum- ble dis- tance|bow, at hum- ble|dis- tance|bow.|
V:3
 z4 c4 | A2 A2 c2 c2 | (e>fe>d c2) B2 | c4 z2 c2 | A2 A2 A2 G2 | A6 B2 | c2 c2 B2 B2 | B8 | %8
w: Prin-|ces to his im-|per- * * * * ial|name Bend|their bright scep- tres|down, bend|their bright scep- tres|down;|
w: O|the de- lights, the|heav’n- * * * * ly|joys, The|glo- ries of the|place, the|glo- ries of the|place|
w: Sweet|ma- jes- ty and|aw- * * * * ful|love Sit|smi- ling on his|brow, sit|smi- ling on his|brow,|
 c4 A2 A2 | (A>BA>B c>dc>B | A2) A2 A2 A2 | G4 z4 | z8 | z8 | z4 c4 | A4 A4 | A4 G4 | A8 |] %18
w: Do- min- ions,|thrones _ _ _ _ _ _ _|_ and pow’rs re-|joice|||To|see him|wear the|crown.|
w: Where Je- sus|sheds _ _ _ _ _ _ _|_ the bright- est|beams|||Of|his o’er-|flow- ing|grace.|
w: And all the|glor- * * * * * * *|* ious ranks a-|bove|||At|hum- ble|dis- tance|bow.|
V:4
 z4 A,,4 |"^6" C,2 C,2 A,,2 A,2 |"^64" E,6"^53" E,2 | A,,4 z2 A,,2 | A,2 A,2"^64" E,2"^53" E,2 | %5
w: Prin-|ces to his im-|per- ial|name Bend|their bright scep- tres|
w: O|the de- lights, the|heav’n- ly|joys, The|glo- ries of the|
w: Sweet|ma- jes- ty and|aw- ful|love Sit|smi- ling on his|
 A,6 E,2 |"^6" C,2 A,,2"^64" B,,2"^5#" B,,2 | E,8 | z8 | A,4 F,2 F,2 | A,2 A,2 A,,2 A,,2 | %11
w: down, bend|their bright scep- tres|down;||Do- min- ions,|thrones and pow’rs re-|
w: place, the|glo- ries of the|place||Where Je- sus|sheds the bright- est|
w: brow, sit|smi- ling on his|brow,||And all the|glor- ious ranks a-|
 E,4 A,4 | %12
w: joice To|
w: beams Of|
w: bove At|
"^Notes: The original order of staves is Tenor - [Alto] - Air - [Bass], with the air and bass bracketed together. The alto and tenor parts are given in the source in the treble clef, an octave above sounding pitch.The first verse only of this text (Isaac Watts’ Book 2, Hymn 91) is underlaid in the source: subsequent verses have beenadded editorially. In the heading of the piece, Ps. 81 Old Version, which begins ‘Be light and glad, in God rejoice’, as analternative text." E,2 E,2 F,2 G,2 | %13
w: see him wear the|
w: his o’er- flow- ing|
w: hum- ble dis- tance|
 A,4"^Those soft, those blessed feet of his,That once rude iron tore,High on a throne of light they stand,And all the saints adore.His head, the dear majestic headThat cruel thorns did wound,See what immortal glories shine,And circle it around!This is the man, th’exalted man,Whom we, unseen, adore;But when our eyes behold his face,Our hearts shall love him more.Lord, how our souls are all on fireTo see thy bless’d abode!Our tongues rejoice in tunes of praiseTo our incarnate God!And while our faith enjoys this sight,We long to leave our clay,And wish thy fiery chariots, Lord,To fetch our souls away." A,4 | %14
w: crown, to|
w: grace, of|
w: bow, at|
"^6" G,4 A,4 |"^6" (C,6 D,2 |"^64" E,4)"^53""^7" E,4 | A,,8 |] %18
w: see him|wear _|_ the|crown.|
w: his o’er-|flow- *|* ing|grace.|
w: hum- ble|dis- *|* tance|bow.|

